svgs/floccus.svg

<?xml version="1.0" encoding="UTF-8" standalone="no"?>
<svg
   width="24"
   height="24"
   viewBox="0 0 24 24"
   fill="none"
   version="1.1"
   id="svg8"
   sodipodi:docname="floccus.svg"
   inkscape:version="1.2.1 (9c6d41e410, 2022-07-14)"
   xml:space="preserve"
   xmlns:inkscape="http://www.inkscape.org/namespaces/inkscape"
   xmlns:sodipodi="http://sodipodi.sourceforge.net/DTD/sodipodi-0.dtd"
   xmlns="http://www.w3.org/2000/svg"
   xmlns:svg="http://www.w3.org/2000/svg"><defs
     id="defs12" /><sodipodi:namedview
     id="namedview10"
     pagecolor="#505050"
     bordercolor="#ffffff"
     borderopacity="1"
     inkscape:showpageshadow="0"
     inkscape:pageopacity="0"
     inkscape:pagecheckerboard="1"
     inkscape:deskcolor="#505050"
     showgrid="false"
     inkscape:zoom="24.709185"
     inkscape:cx="13.901713"
     inkscape:cy="10.36052"
     inkscape:window-width="1920"
     inkscape:window-height="1012"
     inkscape:window-x="0"
     inkscape:window-y="0"
     inkscape:window-maximized="1"
     inkscape:current-layer="svg8"
     showguides="false" /><path
     d="M 18.125,10.366668 C 17.558332,7.4916673 15.033332,5.3333341 12,5.3333341 c -2.4083338,0 -4.5000005,1.3666666 -5.5416671,3.3666666 -2.5083331,0.2666666 -4.4583331,2.3916673 -4.4583331,4.9666673 0,2.758332 2.2416667,4.999998 4.9999997,4.999998 H 17.833332 C 20.133332,18.666666 22,16.8 22,14.5 22,12.3 20.291666,10.516668 18.125,10.366668 Z m -7.791666,5.8 L 7.4166664,13.25 8.5916662,12.075 10.333334,13.808334 14.65,9.5000009 15.825,10.675 Z"
     style="display:inline;fill:#000000;fill-opacity:1;stroke:none;stroke-width:0.416666;stroke-opacity:1"
     id="path2916"
     inkscape:label="path1"
     sodipodi:nodetypes="cscsssscccccccc" /></svg>

<svg xmlns="http://www.w3.org/2000/svg" xml:space="preserve" width="24" height="24" fill="none" viewBox="0 0 24 24"><path d="M18.125 10.367A6.242 6.242 0 0 0 12 5.333 6.246 6.246 0 0 0 6.458 8.7 4.995 4.995 0 0 0 2 13.667c0 2.758 2.242 5 5 5h10.833c2.3 0 4.167-1.867 4.167-4.167 0-2.2-1.708-3.983-3.875-4.133m-7.792 5.8L7.417 13.25l1.175-1.175 1.741 1.733L14.65 9.5l1.175 1.175Z" style="display:inline;fill:#000;fill-opacity:1;stroke:none;stroke-width:.416666;stroke-opacity:1"/></svg>
